assets/icons/support-icon.svg

<?xml version="1.0" encoding="utf-8"?>
<!-- Generator: Adobe Illustrator 25.4.1, SVG Export Plug-In . SVG Version: 6.00 Build 0)  -->
<svg version="1.1" id="Layer_1" xmlns="http://www.w3.org/2000/svg" xmlns:xlink="http://www.w3.org/1999/xlink" x="0px" y="0px"
	 viewBox="0 0 24 24" style="enable-background:new 0 0 24 24;" xml:space="preserve">
<style type="text/css">
	.st0{fill:#FFFFFF;}
</style>
<path class="st0" d="M20,16V4H8v12H20 M22,16c0,1.1-0.9,2-2,2H8c-1.1,0-2-0.9-2-2V4c0-1.1,0.9-2,2-2h12c1.1,0,2,0.9,2,2V16 M16,20v2
	H4c-1.1,0-2-0.9-2-2V7h2v13H16 M14.2,5c-0.9,0-1.6,0.2-2.1,0.6s-0.8,1-0.8,1.8h1.9c0-0.3,0.1-0.5,0.3-0.7c0.2-0.1,0.4-0.2,0.7-0.2
	s0.6,0.1,0.8,0.3c0.2,0.2,0.3,0.4,0.3,0.8c0,0.3-0.1,0.6-0.2,0.8C15,8.6,14.7,8.8,14.5,9c-0.5,0.3-0.9,0.6-1,0.9
	C13.1,10.1,13,10.5,13,11h2c0-0.3,0-0.6,0.1-0.7c0.1-0.2,0.3-0.4,0.5-0.5c0.4-0.2,0.8-0.5,1.1-0.9C17,8.4,17.2,8,17.2,7.5
	c0-0.8-0.3-1.4-0.8-1.8C15.9,5.2,15.1,5,14.2,5 M13,12v2h2v-2H13z"/>
</svg>

<svg xmlns="http://www.w3.org/2000/svg" viewBox="0 0 24 24"><path d="M20 16V4H8V16H20M22 16C22 17.1 21.1 18 20 18H8C6.9 18 6 17.1 6 16V4C6 2.9 6.9 2 8 2H20C21.1 2 22 2.9 22 4V16M16 20V22H4C2.9 22 2 21.1 2 20V7H4V20H16M14.2 5C13.3 5 12.6 5.2 12.1 5.6C11.6 6 11.3 6.6 11.3 7.4H13.2C13.2 7.1 13.3 6.9 13.5 6.7C13.7 6.6 13.9 6.5 14.2 6.5C14.5 6.5 14.8 6.6 15 6.8C15.2 7 15.3 7.2 15.3 7.6C15.3 7.9 15.2 8.2 15.1 8.4C15 8.6 14.7 8.8 14.5 9C14 9.3 13.6 9.6 13.5 9.9C13.1 10.1 13 10.5 13 11H15C15 10.7 15 10.4 15.1 10.3C15.2 10.1 15.4 9.9 15.6 9.8C16 9.6 16.4 9.3 16.7 8.9C17 8.4 17.2 8 17.2 7.5C17.2 6.7 16.9 6.1 16.4 5.7C15.9 5.2 15.1 5 14.2 5M13 12V14H15V12H13Z" /></svg>
